!!!!SEGMENT:pl-kk--kk-i-518--001_lachner-o-bolze-przedwieczny.krn
!!!id: 18xx:1348
!!!COM: Lachner
!!!OTL: O Boże przedwieczny
!!!PDT:
!!!SMS-siglum: PL-Kk
!!!SMS-shelfmark: Kk.I.518
!!!NIFC-rismID: 1001139109
!!!URL-scan: http://repozytorium.nifc.pl/skany/pl-kk-nut--i-518
!!!ONB-nifc:
!!!SMS-variant:
!!!SMS-altvar:
**kern	**text	**dynam	**kern	**text	**dynam
*part2	*part2	*part2	*part1	*part1	*part1
*staff2	*staff2	*	*staff1	*staff1	*
*I"Baſso.	*	*	*I"Soprano	*	*
*I'B	*	*	*I'S	*	*
*clefF4	*	*	*clefC1	*	*
*k[b-]	*	*	*k[b-]	*	*
*M4/4	*	*	*M	*	*
*met(C.)	*	*	*met(C.)	*	*
*	*	*below	*	*	*below
!LO:TX:a:t=P:problem:all\right:global	!	!	!LO:TX:a:t=P:problem:all\right:global	!	!
!LO:TX:a:t=P:problem:metrum "C" z kropką (nie wyświetla się)	!	!	!LO:TX:a:t=P:problem:metrum "C" z kropką (nie wyświetla się)	!	!
!LO:TX:a:t=P:problem:oznaczenia dynamiczne znajdują się na pięciolinii z lewej strony główki nuty	!	!	!LO:TX:a:t=P:problem:oznaczenia dynamiczne znajdują się na pięciolinii z lewej strony główki nuty	!	!
!LO:TX:a:i:t=Andante.	!	!	!LO:TX:i:a:t=Andante.	!	!
!	!	!LO:DY:b:rj	!	!	!LO:DY:b:rj
4F\	O	p	4f/	O	p
=1	=1	=1	=1	=1	=1
*2\right	*	*	*2\right	*	*
2C/	Bo-	.	2g\	Bo-	.
4C/	-że	.	4g\	-że	.
4C/	przed-	.	4g\	przed-	.
=2	=2	=2	=2	=2	=2
2F\	-wie-	.	2a\	-wie-	.
4F\	-czny	.	4f/	-czny	.
8F\	Bo-	.	8a\	Bo-	.
8F\	-że	.	8cc\	-że	.
=3	=3	=3	=3	=3	=3
2BB-/	nie-	.	(>4.cc\	nie-	.
.	.	.	8b-\)	.	.
4C/	-o-	.	4a\	-o-	.
4C/	-gar-	.	4g\	-gar-	.
=4	=4	=4	=4	=4	=4
4F\	-nio-	.	4g\	-nio-	.
4F\	-ny	.	4a\	-ny,	.
4r	.	.	4r	.	.
4F\	O	.	4f/	o	.
=5	=5	=5	=5	=5	=5
2C/	Bo-	.	2g\	Bo-	.
4C/	-że	.	4g\	-że	.
4C/	w do-	.	4g\	w do-	.
!	!	!	!LO:LB:g=original	!	!
=6	=6	=6	=6	=6	=6
2F\	-bro-	.	2a\	-bro-	.
4F\	-ci	.	4f/	-ci	.
!	!	!	!	!	!LO:DY:b:rj
8F\	ni-	.	8a\	ni-	f
8F\	-gdy	.	8cc\	-gdy	.
!LO:LB:g=original	!	!	!	!	!
=7	=7	=7	=7	=7	=7
4.D\	ni-	.	4.ff\	ni-	.
8F\	-gdy	.	8dd\	-gdy	.
4G\	nie-	.	4cc\	nie-	.
4GG/	-skon-	.	4bn\	-skon-	.
=8	=8	=8	=8	=8	=8
4GG/	-czo-	.	4dd\	-czo-	.
4C/	-ny,	.	4cc\	-ny,	.
4r	.	.	4r	.	.
!	!	!	!	!	!LO:DY:b:rj
4A\	do	.	4cc\	do	p
=9	=9	=9	=9	=9	=9
(>4G\	Cie-	.	(>4b-\	Cie-	.
4F\)	.	.	4a\)	.	.
4B-\	-bie	.	4g\	-bie	.
4A\	o	.	4f/	o	.
=10	=10	=10	=10	=10	=10
2C/	Pa-	.	2b-\	Pa-	.
4F\	-nie	.	4a\	-nie	.
4A\	ser-	.	4cc\	ser-	.
=11	=11	=11	=11	=11	=11
(>4G\	-de-	.	(>4b-\	-decz-	.
4F\)	.	.	4a\)	.	.
4B-\	-cznie	.	4g\	-nie	.
4A\	wo-	.	4f\	wo-	.
!	!	!	!LO:LB:g=original	!	!
=12	=12	=12	=12	=12	=12
2C/	-ła-	.	2b-\	-ła-	.
4F\	-my,	.	4a\	-my	.
!	!	!LO:DY:b:rj	!	!	!LO:DY:b:rj
4F\	do	f	4cc\	do	f
!LO:LB:g=original	!	!	!	!	!
=13	=13	=13	=13	=13	=13
2F\	cie-	.	(>4ff\	Cie-	.
.	.	.	4ee\)	.	.
4F\	-bie	.	4dd\	-bie	.
4F\	O	.	4cc\	o	.
=14	=14	=14	=14	=14	=14
4AA/	Pa-	.	(>4.cc\	Pa-	.
(<8BB-/L	.	.	.	.	.
8C/J)	.	.	8b-\)	.	.
4D/	-nie	.	4a\	-nie	.
4BB-/	ser-	.	8b-\L	ser-	.
.	.	.	8g\J	.	.
=15	=15	=15	=15	=15	=15
2C/	-de-	.	2f/	-decz-	.
4C/	-cznie	.	4f/	-nie	.
4C/	wo-	.	4g/	wo-	.
=16	=16	=16	=16	=16	=16
2F\	-ła-	.	(>4.g\	-ła-	.
.	.	.	8a\)	.	.
4F\	-my	.	4a\	-my,	.
!	!	!LO:DY:b:rj	!	!	!LO:DY:b:rj
4F\	łzy	f	4cc\	łzy	f
=17	=17	=17	=17	=17	=17
4F\	na-	.	4ff\	na-	.
4F\	-sze	.	4ee\	-sze	.
4F\	wy-	.	4dd\	wy-	.
4F\	-le-	.	4cc\	-le-	.
!	!	!	!LO:LB:g=original	!	!
=18	=18	=18	=18	=18	=18
4AA/	-wa-	.	(>4.cc\	-wa-	.
(<8BB-/L	.	.	.	.	.
8C/J)	.	.	8b-\)	.	.
2D\	-my	.	2a\	-my,	.
!LO:LB:g=original	!	!	!	!	!
=19	=19	=19	=19	=19	=19
4r	.	.	4r	.	.
4D/	łzy	.	4a\	łzy	.
4GG/	na-	.	4dd\	na-	.
4GG/	-sze	.	8b-\L	-sze	.
.	.	.	8g\J	.	.
=20	=20	=20	=20	=20	=20
4D/	na-	.	4f/	na-	.
(<8BB-/L	.	.	8g\L	.	.
16AA/L	-sze	.	16a\L	-sze	.
16GG/JJ)	.	.	16b-\JJ	.	.
4C/	wy-	.	4a\	wy-	.
4C/	-le-	.	4g\	-le-	.
=21	=21	=21	=21	=21	=21
4C/	-wa-	.	4g\	-wa-	.
4FF/	-my.	.	4f\	-my.	.
4r	.	.	4r	.	.
4F\	Ob-	.	4f/	Ob-	.
=22	=22	=22	=22	=22	=22
2C/	-darz	.	2g\	-darz	.
2C/	Swiat	.	2g\	Swiat	.
=23	=23	=23	=23	=23	=23
2F\	wszy-	.	2a\	wszy-	.
4F\	-stek	.	4f\	-stek	.
4F\	Po-	.	8a\L	Po-	.
.	.	.	8cc\J	.	.
!	!	!	!LO:LB:g=original	!	!
=24	=24	=24	=24	=24	=24
2BB-/	-ko-	.	(>4.cc\	-ko-	.
.	.	.	8b-\)	.	.
4C/	-iem	.	4a\	-jem	.
4C/	szczę-	.	4g\	szczę-	.
=25	=25	=25	=25	=25	=25
4F\	-li-	.	4g\	-sli-	.
4FF/	-wym	.	4a\	-wym,	.
!LO:LB:g=original	!	!	!	!	!
4r	.	.	4r	.	.
4F\	racz	.	4f/	racz	.
=26	=26	=26	=26	=26	=26
2C/	go	.	2g\	go	.
2C/	nie	.	2g\	nie	.
=27	=27	=27	=27	=27	=27
2F\	ka-	.	2a\	ka-	.
4F\	-rać	.	4f/	-rać	.
8F\	Mo-	.	8a\	Mo-	.
8F\	-rem	.	8cc\	-rem	.
=28	=28	=28	=28	=28	=28
!	!	!LO:DY:b:rj	!	!	!
4.D\	Mo-	f	4.ff\	mo-	.
8F\	-rem	.	8dd\	-rem	.
4G\	za-	.	4cc\	za-	.
4GG/	-ra-	.	4bn\	-raz-	.
=29	=29	=29	=29	=29	=29
4C/	-zli-	.	4dd\	-li-	.
4C/	-wym	.	4cc\	-wem,	.
4r	.	.	4r	.	.
4A\	a-	.	4cc\	a-	.
!	!	!	!LO:LB:g=original	!	!
=30	=30	=30	=30	=30	=30
4G\	-ni	.	4b-\	-ni	.
4F\	za	.	4a\	za	.
4B-\	grze-	.	4g\	grze-	.
4A\	-chy	.	4f\	-chy	.
=31	=31	=31	=31	=31	=31
2C/	wiel-	.	2b-\	wiel-	.
4F\	-kie	.	4a\	-kie	.
4A\	Ludz-	.	4cc\	ludz-	.
!LO:LB:g=original	!	!	!	!	!
=32	=32	=32	=32	=32	=32
(>4G\	-kie-	.	(>4b-\	-kie-	.
4F\)	.	.	4a\)	.	.
4B-\	-go	.	4g\	-go	.
4A\	na-	.	4f/	Na-	.
=33	=33	=33	=33	=33	=33
2C/	-ro-	.	2b-\	-ro-	.
4F\	-du,	.	4a\	-du,	.
!	!	!LO:DY:b:rj	!	!	!LO:DY:b:rj
4F\	a-	f	4cc\	a-	f
=34	=34	=34	=34	=34	=34
4F\	-ni	.	4.ff\	-ni	.
4F\	za	.	.	.	.
.	.	.	8ee\	za	.
4F\	grze-	.	4dd\	grze-	.
4F\	-chy	.	4cc\	-chy	.
=35	=35	=35	=35	=35	=35
4AA/	wiel-	.	(>4.cc\	wiel-	.
(<8BB-/L	.	.	.	.	.
8C/J)	.	.	8b-\)	.	.
4D/	-kie	.	4a\	-kie,	.
4BB-/	Na-	.	8b-\L	Na-	.
.	.	.	8g\J	.	.
!	!	!	!LO:LB:g=original	!	!
=36	=36	=36	=36	=36	=36
2C/	-ro-	.	2f/	-ro-	.
4C/	-du,	.	4f/	-du,	.
4C/	a-	.	4g/	a-	.
=37	=37	=37	=37	=37	=37
4.F\	-ni	.	4.g\	-ni	.
8F\	za	.	8a\	za	.
4F\	grze-	.	4a\	grze-	.
!	!	!	!	!	!LO:DY:b:rj
4F\	-chy	.	4cc\	-chy	f
!LO:LB:g=original	!	!	!	!	!
=38	=38	=38	=38	=38	=38
4F\	Ludz-	.	4.ff\	ludz-	.
4F\	-kie-	.	.	.	.
.	.	.	8ee\	-kie-	.
4F\	-go	.	4dd\	-go	.
4F\	na-	.	4cc\	na-	.
=39	=39	=39	=39	=39	=39
4AA/	-ro-	.	(>4.cc\	-ro-	.
(<8BB-/L	.	.	.	.	.
8C/J)	.	.	8b-\)	.	.
2D\	-du,	.	2a\	-du,	.
=40	=40	=40	=40	=40	=40
4r	.	.	4r	.	.
4D/	nie	.	4a\	nie	.
4GG/	karz	.	4dd\	karz	.
8GG/	pla-	.	8b-\	pla-	.
8GG/	-gą	.	8g\	-gą	.
=41	=41	=41	=41	=41	=41
4D\	pla-	.	(>4f\	pla-	.
(<8BB-/L	.	.	8g\L	.	.
16AA/L	.	.	16a\L	.	.
16GG/JJ	.	.	16b-\JJ)	.	.
!	!	!	!LO:LB:g=original	!	!
4C/)	.	.	4a\	.	.
4C/	-gą	.	4g\	-go	.
=42	=42	=42	=42	=42	=42
4F\	gło-	.	4g\	gło-	.
4FF/	-du.	.	4f\	-du.	.
4r	.	.	4r	.	.
!	!	!LO:DY:b:rj	!	!	!
4F\	przed	p	4f/	Przed	.
=43	=43	=43	=43	=43	=43
4C/	Two-	.	4g\	Two-	.
4C/	-ią	.	4g\	-ią	.
4C/	Wo-	.	4g\	Wo-	.
4C/	-lą	.	4g\	-lą	.
!LO:LB:g=original	!	!	!	!	!
=44	=44	=44	=44	=44	=44
2F\	Pa-	.	2a\	Pa-	.
4FF/	-nie	.	4f/	-nie	.
8F,\	u-	.	8a\	u-	.
8F\	-pa-	.	8cc\	-pa-	.
=45	=45	=45	=45	=45	=45
2BB-/	-da-	.	(>4.cc\	-da-	.
.	.	.	8b-\)	.	.
4C/	-my	.	4a\	-my	.
4C/	wpo-	.	4g\	w po-	.
=46	=46	=46	=46	=46	=46
4F\	-ko-	.	4g\	-ko-	.
4F\	-rze,	.	4a\	-rze.	.
4r	.	.	4r	.	.
4F\	nie	.	4f/	nie	.
!	!	!	!LO:LB:g=original	!	!
=47	=47	=47	=47	=47	=47
4C/	sądź	.	4g\	sądz	.
4C/	nas	.	4g\	nas	.
4C/	we-	.	4g\	we-	.
4C/	-dług	.	4g\	-sług	.
=48	=48	=48	=48	=48	=48
2F\	grze-	.	2a\	grze-	.
4F\	-chow	.	4f/	-chuw	.
8F\	we-	.	8a\	we-	.
8F\	-dług	.	8cc\	-dług	.
=49	=49	=49	=49	=49	=49
!	!	!	!	!	!LO:DY:b:rj
4.D\	grze-	.	4.ff\	grze-	f
8F\	-chuw	.	8dd\	-chuw	.
4G\	na-	.	4cc\	na-	.
4GG/	-szych	.	4bn\	-szych	.
!LO:LB:g=original	!	!	!	!	!
=50	=50	=50	=50	=50	=50
4C/	Bo-	.	4dd\	Bo-	.
4C/	-że,	.	4cc\	-że,	.
4r	.	.	4r	.	.
!	!	!	!	!	!LO:DY:b:rj
4A\	daj	.	4cc\	daj	p
=51	=51	=51	=51	=51	=51
4G\	wszy-	.	4b-\	wszy-	.
4F\	-stkim	.	4a\	-stkim	.
4B-\	Du-	.	4g\	Du-	.
4A\	-szom	.	4f\	-szom	.
=52	=52	=52	=52	=52	=52
2C/	zmar-	.	2b-\	zmar-	.
4F\	-łych	.	4a\	-łych	.
4A\	O	.	4cc\	o	.
!	!	!	!LO:LB:g=original	!	!
=53	=53	=53	=53	=53	=53
4G\	wszech-	.	4b-\	wszech-	.
4F\	-mo-	.	4a\	-mo-	.
4B-\	-gą-	.	4g\	-gą-	.
4A\	-cy	.	4f\	-cy	.
=54	=54	=54	=54	=54	=54
2C/	Pa-	.	2b-\	Pa-	.
4F\	-nie,	.	4a\	-nie	.
!	!	!LO:DY:b:rj	!	!	!LO:DY:b:rj
4F\	daj	f	4cc\	daj	f
=55	=55	=55	=55	=55	=55
4F\	wszy-	.	4.ff\	wszy-	.
4F\	-stkim	.	.	.	.
.	.	.	8ee\	-stkim	.
4F\	Du-	.	4dd\	Du-	.
4F\	-szom	.	4cc\	-szom	.
=56	=56	=56	=56	=56	=56
4AA/	zmar-	.	(>4.cc\	zmar-	.
(<8BB-/L	.	.	.	.	.
8C/J)	.	.	8b-\)	.	.
!LO:LB:g=original	!	!	!	!	!
4D/	-łych	.	4a\	-ły	.
4BB-/	O	.	8b-\L	o	.
.	.	.	8g\J	.	.
=57	=57	=57	=57	=57	=57
4C/	wszech-	.	4f/	wszech-	.
4C/	-mo-	.	4f/	-mo-	.
4C/	-gą-	.	4f/	-gą-	.
4C/	-cy	.	4g/	-cy	.
=58	=58	=58	=58	=58	=58
2F\	Pa-	.	(>4.g\	Pa-	.
.	.	.	8a\)	.	.
4F\	-nie,	.	4a\	-nie,	.
!	!	!LO:DY:b:rj	!	!	!
4F\	O	f	4cc\	o	.
!	!	!	!LO:LB:g=original	!	!
=59	=59	=59	=59	=59	=59
4F\	wszech-	.	4ff\	wszech-	.
4F\	-mo-	.	4ee\	-mo-	.
4F\	-gą-	.	4dd\	-gą-	.
4F\	-cy	.	4cc\	-cy	.
=60	=60	=60	=60	=60	=60
4AA/	Pa-	.	(>4.cc\	Pa-	.
8BB-/L	.	.	.	.	.
8C/J	.	.	8b-\)	.	.
2D\	-nie	.	2a\	-nie	.
=61	=61	=61	=61	=61	=61
4r	.	.	4r	.	.
(>4D\	w Ra-	.	4a\	w Ra-	.
4GG/)	.	.	4dd\	-ju	.
4GG/	-ju	.	8b-\	za-	.
.	.	.	8g\	-miesz-	.
=62	=62	=62	=62	=62	=62
4D/	w Ra-	.	4f/	-ka-	.
8BB-/L	.	.	(>8g\L	-nie	.
16AA/L	.	.	16a\L	.	.
16GG/JJ	-ju	.	16b-\JJ)	.	.
!LO:LB:g=original	!	!	!	!	!
4C/	za-	.	4a\	za-	.
4C/	-miesz-	.	4g\	-miesz-	.
=63	=63	=63	=63	=63	=63
4F\	-ka-	.	4g\	-ka-	.
4FF/	-nie.	.	4f\	-nie.	.
!LO:N:vis=4	!	!	!LO:N:vis=4	!	!
2r	.	.	2r	.	.
.	.	.	.	.	.
==	==	==	==	==	==
*-	*-	*-	*-	*-	*-
!!!system-decoration: [(s1,s2)]
!!!RDF**kern: > = above
!!!RDF**kern: < = below
!!!ENC: Berenika Jozajtis
!!!END: 2020-01-04
!!!EED: Mateusz Mrugas
!!!EST: 2021-01-10
